X:1
T:[ID 1-54]
T:[ID 1-54]
T:Bezeichnung standardisiert: Menuett Men\"uet Neue Compa:
T:Urheber unbekannt Datum in der hier transkribierten schriftlichen Quelle: vermutlich vor 1767
C:Urheber unbekannt
C:Datum in der hier transkribierten schriftlichen Quelle: vermutlich vor 1767
L:1/8
M:3/4
K:G
V:1 treble 
V:1
"^vgl.I, 82b" G2 BGAF | (3GBc d3 c | BdBGAF | G4 A2 | B2 d2 cB | A2 dc d2 | EGFEDC | D6 :: %8
 d2 BGAF | (3GBc d3 c | BdBGAF | c4 B2 | c2 eABF | G2 GF G2 | AcBAGF | G6 :| %16

